assets/css-3.svg

<svg height="288" width="288" xmlns="http://www.w3.org/2000/svg"><svg height="288" width="288" xmlns="http://www.w3.org/2000/svg"><svg height="288" preserveAspectRatio="xMidYMid" transform="matrix(.9167 0 0 .9167 11.995 11.965)" viewBox="0 0 256 361" width="288" xmlns="http://www.w3.org/2000/svg"><path d="m127.843868 360.087912-104.1821537-28.92167-23.21652749-260.4005277h255.10962619l-23.241143 260.3597367z" fill="#b7b7b7"/><path d="m212.416703 314.546637 19.861099-222.4893183h-104.277802v245.8929233z" fill="#d8d8d8"/><path d="m53.6685714 188.636132 2.8624176 31.936703h71.469011v-31.936703zm-5.7515604-64.641407 2.9032088 31.937407h77.1797802v-31.937407zm80.082989 147.585407-.139956.037275-35.5685275-9.60422-2.2737583-25.471297h-32.0597802l4.4743736 50.145758 65.4206594 18.161231.146989-.040791z" fill="#d8d8d8"/><path d="m60.4835165 0h38.6813187v16.1758242h-22.5054945v16.1758242h22.5054945v16.1758241h-38.6813187zm46.4175825 0h38.681319v14.0659341h-22.505495v2.8131868h22.505495v32.3516483h-38.681319v-14.7692307h22.505494v-2.8131869h-22.505494zm46.417582 0h38.681319v14.0659341h-22.505495v2.8131868h22.505495v32.3516483h-38.681319v-14.7692307h22.505495v-2.8131869h-22.505495z" fill="#252525"/><path d="m202.126769 188.636132 5.765627-64.641407h-80.002814v31.937407h45.00255l-2.906022 32.704h-42.096528v31.936703h39.326945l-3.707076 41.419956-35.619869 9.614066v33.22655l65.472704-18.145759.480351-5.395692 7.504879-84.079824z" fill="#fff"/></svg></svg></svg>

<?xml version="1.0" encoding="UTF-8" standalone="no"?>
<svg width="256px" height="361px" viewBox="0 0 256 361" version="1.1" xmlns="http://www.w3.org/2000/svg" xmlns:xlink="http://www.w3.org/1999/xlink" preserveAspectRatio="xMidYMid">
    <g>
        <path d="M127.843868,360.087912 L23.6617143,331.166242 L0.445186813,70.7657143 L255.554813,70.7657143 L232.31367,331.125451 L127.843868,360.087912 L127.843868,360.087912 Z" fill="#264DE4"/>
        <path d="M212.416703,314.546637 L232.277802,92.0573187 L128,92.0573187 L128,337.950242 L212.416703,314.546637 L212.416703,314.546637 Z" fill="#2965F1"/>
        <path d="M53.6685714,188.636132 L56.530989,220.572835 L128,220.572835 L128,188.636132 L53.6685714,188.636132 L53.6685714,188.636132 Z" fill="#EBEBEB"/>
        <path d="M47.917011,123.994725 L50.8202198,155.932132 L128,155.932132 L128,123.994725 L47.917011,123.994725 L47.917011,123.994725 Z" fill="#EBEBEB"/>
        <path d="M128,271.580132 L127.860044,271.617407 L92.2915165,262.013187 L90.0177582,236.54189 L57.957978,236.54189 L62.4323516,286.687648 L127.853011,304.848879 L128,304.808088 L128,271.580132 L128,271.580132 Z" fill="#EBEBEB"/>
        <path d="M60.4835165,0 L99.1648352,0 L99.1648352,16.1758242 L76.6593407,16.1758242 L76.6593407,32.3516484 L99.1648352,32.3516484 L99.1648352,48.5274725 L60.4835165,48.5274725 L60.4835165,0 L60.4835165,0 Z" fill="#000000"/>
        <path d="M106.901099,0 L145.582418,0 L145.582418,14.0659341 L123.076923,14.0659341 L123.076923,16.8791209 L145.582418,16.8791209 L145.582418,49.2307692 L106.901099,49.2307692 L106.901099,34.4615385 L129.406593,34.4615385 L129.406593,31.6483516 L106.901099,31.6483516 L106.901099,0 L106.901099,0 Z" fill="#000000"/>
        <path d="M153.318681,0 L192,0 L192,14.0659341 L169.494505,14.0659341 L169.494505,16.8791209 L192,16.8791209 L192,49.2307692 L153.318681,49.2307692 L153.318681,34.4615385 L175.824176,34.4615385 L175.824176,31.6483516 L153.318681,31.6483516 L153.318681,0 L153.318681,0 Z" fill="#000000"/>
        <path d="M202.126769,188.636132 L207.892396,123.994725 L127.889582,123.994725 L127.889582,155.932132 L172.892132,155.932132 L169.98611,188.636132 L127.889582,188.636132 L127.889582,220.572835 L167.216527,220.572835 L163.509451,261.992791 L127.889582,271.606857 L127.889582,304.833407 L193.362286,286.687648 L193.842637,281.291956 L201.347516,197.212132 L202.126769,188.636132 L202.126769,188.636132 Z" fill="#FFFFFF"/>
    </g>
</svg>
